svgs/light/lightbulb.svg

<svg xmlns="http://www.w3.org/2000/svg" viewBox="0 0 384 512"><!--! Font Awesome Pro 6.3.0 by @fontawesome - https://fontawesome.com License - https://fontawesome.com/license (Commercial License) Copyright 2023 Fonticons, Inc. --><path d="M255.9 415.1H128.1c-8.846 0-15.98 7.179-15.97 16.03L112.1 454.3c.0098 6.273 1.81 12.47 5.284 17.69l17.14 25.69c5.225 7.855 17.2 14.28 26.64 14.28h61.67c9.418 0 21.39-6.436 26.61-14.28l17.08-25.68c2.953-4.441 5.341-12.37 5.348-17.7l-.0521-22.33C271.8 423.2 264.7 415.1 255.9 415.1zM239.9 454.4l-16.11 24.45c-.4766 .4336-1.686 1.082-.8672 1.117l-60.29 .1172c-.4238-.1055-1.138-.2793-1.423-.2793c-.1406 0-.1348-.2265 0 0l-17.1-25.48l-.0098-6.37h95.94l.0039 5.179C239.9 453.6 239.7 454.4 239.9 454.4C239.9 454.4 239.8 454.5 239.9 454.4zM315.8 51.3c-33.33-33.22-78.22-52.47-124.3-51.28C94.7 .2944 16 79.89 16 177.4c0 42.9 15.47 84.34 43.55 116.6c13.33 15.31 35.84 49.59 43.73 76.02c1.078 8.687 8.844 14.62 17.64 13.72c8.703-.9687 14.98-8.968 14.11-17.65l-.6094-3.312c-10.31-34.97-36-72.84-50.73-89.77C60.67 246.5 48 212.6 48 177.4c0-81.24 63.05-145.1 143.5-145.3H192c38.13 0 74.05 14.87 101.2 41.93C320.8 101.5 336 138.2 336 177.4c0 35.18-12.67 69.15-35.67 95.62c-14.75 16.94-40.44 54.81-50.75 89.77l-.625 3.343c-1.047 8.749 4.938 17.59 13.67 18.69c.7813 .0938 1.531 .1562 2.281 .1562c7.797 0 14.36-5.124 15.36-13.12c8.344-28.25 30.86-62.52 44.2-77.84C352.5 261.7 368 220.3 368 177.4C368 129.7 349.5 84.89 315.8 51.3zM208 80.01c0-8.843-7.156-16-16-16c-61.75 0-112 50.24-112 111.1C80 184.8 87.16 192 96 192s16-7.158 16-16c0-44.1 35.88-79.1 80-79.1C200.8 96.01 208 88.86 208 80.01z"/></svg>

<svg xmlns="http://www.w3.org/2000/svg" viewBox="0 0 384 512"><!-- Font Awesome Pro 6.0.0-alpha2 by @fontawesome - https://fontawesome.com License - https://fontawesome.com/license (Commercial License) --><path d="M255.975 415.994H128.025C119.18 415.994 112.012 423.173 112.025 432.02L112.063 454.412C112.072 460.685 113.932 466.813 117.406 472.035L134.502 497.72C139.727 505.575 151.723 512 161.156 512H222.875C232.293 512 244.266 505.587 249.482 497.748L266.551 472.102C269.504 467.661 271.93 459.665 271.937 454.334L271.975 432.02C271.988 423.173 264.82 415.994 255.975 415.994ZM239.91 454.377L223.742 478.886C223.266 479.32 222.057 479.968 222.875 480.003L162.588 480.12C162.164 480.015 161.475 479.687 161.189 479.687C161.049 479.687 161.006 479.769 161.141 479.995L144.062 454.361L144.053 447.991H239.99L239.994 453.17C239.93 453.619 239.678 454.486 239.795 454.486C239.816 454.486 239.854 454.451 239.91 454.377ZM315.781 51.297C282.453 18.081 237.563 -1.135 191.438 0.052C94.703 0.333 16 79.888 16 177.378C16 220.28 31.469 261.713 59.547 293.991C72.875 309.302 95.391 343.58 103.281 370.014C104.359 378.701 112.125 384.638 120.922 383.732C129.625 382.763 135.906 374.764 135.031 366.077L134.422 362.765C124.109 327.8 98.422 289.929 83.687 272.993C60.672 246.527 48 212.562 48 177.378C48 96.136 111.047 32.299 191.531 32.049H192C230.125 32.049 266.047 46.922 293.188 73.982C320.797 101.479 336 138.225 336 177.378C336 212.562 323.328 246.527 300.328 272.993C285.578 289.929 259.891 327.8 249.578 362.765L248.953 366.109C247.906 374.858 253.891 383.701 262.625 384.794C263.406 384.888 264.156 384.95 264.906 384.95C272.703 384.95 279.266 379.826 280.266 371.827C288.609 343.58 311.125 309.302 324.469 293.991C352.531 261.713 368 220.28 368 177.378C368 129.664 349.453 84.887 315.781 51.297ZM208 80.044C208 71.201 200.844 64.045 192 64.045C130.25 64.045 80 114.271 80 176.026C80 184.869 87.156 192.025 96 192.025S112 184.869 112 176.026C112 131.925 147.875 96.038 192 96.038C200.844 96.038 208 88.887 208 80.044Z"/></svg>
